X:1
T:O how amiable are thy dwellings - Weelkes
T:James Gibb editions
T:#
%%score [ 1 { 2 | 3 } 4 5 ]
L:1/8
Q:1/4=108
M:4/4
K:Eb
V:1 treble nm="Soprano" snm="S"
V:2 treble nm="Alto I" snm="A"
V:3 treble 
V:4 treble-8 nm="Tenor" snm="T"
V:5 bass nm="Bass" snm="B"
V:1
"^Psalm 84 vv 1-2, 13""^O how amiable are thy dwellings" z8 | z8 | z4 B4- | B2 B2 c3 c | %4
w: ||O|* how a- mi-|
 d3 c B2"^Thomas Weelkes\n(c.1576-1623)" d2 |[M:4/4] e4 B4- | B4 z4 | z4 B4- | B2 B2 c3 c | %9
w: a- ble are thy|dwell- ings,||O|* how a- mi-|
 de f4 =e2 | f3 c d2 c2 | B8 | z2 c2 d3 c | B2 B2 e3 d | c2 c2 f3 e | d2 (c3 B) B2- | B2 =A2 B4 | %17
w: a- ble are thy|dwell- ings, thy dwell-|ings:|thou Lord of|hosts, thou Lord of|hosts, thou Lord of|hosts, thou * Lord|* of hosts,|
 B3 (c d) (e c2) | B4 z4 | z8 | z8 | B4 c2 e2- | ee (d2 c4) | B4 z4 | z4 z2 A2 | c2 e3 e d2 | %26
w: thou Lord * of *|hosts!|||My soul hath|* a de\- *|sire,|my|soul hath a de-|
 c2 c2 d2 f2- | ff e2 d2 c2 | ee d2 cc B2 | A2 (GA) B2 B2- | B2 =A2 B2 F2 | B2 BA G2 G2 | %32
w: sire, my soul hath|* a de- sire and|long- ing to en- ter in-|to the * courts of|* the Lord: my|heart and my flesh re-|
 c2 cB =A (G A2) | B6 B2 | B3 B B4 | B2 e2 ed c2 | B2 f2 fed (c- | B4) e2 AA | c2 c2 c4 | %39
w: joice in the liv- ing *|God, the|liv- ing God,|my heart and my flesh|re- joice in the liv- ing|* God, in the|liv- ing God.|
 z2 c4 c2 | f4 e4 | d4 z4 | F3 G =AB c2- | cedd c2 B2- | B2 =A2 B4 | z2 B3 cde | f4 f4 | f3 f f4 | %48
w: O Lord|God of|hosts:|bless- ed is the man|* that put- teth his trust|* in thee,|bless- ed is the|man that|put- teth his|
 c2 c2 d4 | z4 z2 (f2- | fe d2 c2 e2 | d2 c2 B2 _d2) | c4 z4 | z4 z2[Q:1/4=107] (e2- | %54
w: trust in thee.|A\-|||men,|A\-|
[Q:1/4=105] e[Q:1/4=104]d[Q:1/4=104]c[Q:1/4=103]f-[Q:1/4=102] f[Q:1/4=101]e[Q:1/4=100]d[Q:1/4=99]c | %55
w: |
[Q:1/4=98] d2[Q:1/4=96] e2[Q:1/4=94] B4- |[Q:1/4=91] B4)[Q:1/4=60] !fermata!B4 |] %57
w: |* men.|
V:2
 z8 | z8 | z8 | E6 E2 | F3 F GA B2 |[M:4/4] A2 G2 F2 EF | G2 F2 E3 C | G2 F3 (E D2) | G2 FG A3 A | %9
w: |||O how|a- mi- a- ble are|thy dwell- ings, O how|a- mi- a- ble|are thy dwell\- *|ings, O how a- mi-|
 G2 D2 EF G2 | =A4 z2 _A2 | G6 D2 | F6 F2 | G3 F E2 E2 | F2 C2 D (B, =A,2) | B,2 F,2 F,4- | %16
w: a- ble are thy dwell-|ings, are|thy dwell-|ings: thou|Lord of hosts, thou|Lord of hosts, thou *|Lord of hosts,|
 F,2 C2 B,2 F2 | G2 B3 B A2 | G2 F (E D2) C2 | (B,CDE) D2 C2 | E2 DD E4 | E2 B,2 E2 E2 | %22
w: * of hosts! My|soul hath a de-|sire and long\- * ing|to * * * en- ter|in- to the courts|of the Lord, my|
 G2 B3 B A2 | G4 F4 | B,4 F4 | z2 E2 G2 B2- | BB A2 G2 F2 | D2 E2 F4 | B,C D2 E3 (D | C4 F4 | %30
w: soul hath a de-|sire and|long- ing|my soul hath|* a de- sire and|long- ing to|en- ter in- to the|* courts|
 F3 E D4- | D4 B,2 E2 | DC B,2 B,2 F2 | FEDC D2 E2 | E2 D2 E4- | E4 E2 A2 | AG F2 F2 B2 | %37
w: of the Lord:|* my heart|and my flesh re- joice|in the liv- ing God, the|liv- ing God,|* my heart|and my flesh re- joice|
 BAGF E2 C2 | C3 C C4 | z2 F4 C2 | D4 E3 (F- | G2) F2 F4 | D4 C2 F,2- | F,G,=A,B, CEDD | %44
w: in the liv- ing God, the|liv- ing God.|O Lord|God of hosts,|* Lord God|of hosts: bless\-|* ed is the man that put- teth|
 C4 D2 B,2 | E4 B,3 C | DEF F2 GAB | c2 =A2 AA B2 | B2 =A2 B2 B2- | B_A G2 F2 D2- | DCGF) E4 | %51
w: his trust in|thee, bless- ed|is the man, bless- ed is the|man that put- teth his|trust in thee. A\-||* * * * men,|
 z2 (A3 G F2 | =E F2 E) F3 (_E | DE F2 GFED | CB, C2 DEFG | F2 G4 F2 | E4) !fermata!D4 |] %57
w: A\- * *|* * * men, A\-||||* men.|
V:3
 z8 | z4 F4- | F2 F2 G3 F | GA B4 =A2 | B3 A G2 F2 |[M:4/4] E4 D2 G,2- | G,A, B,4 =A,2 | %7
w: |O|* how a- mi-|a- ble are thy|dwell- ings, O how|a- mi- a\-|* ble are thy|
 B,2 B,2 G2 F2 | E2 B,2 E2 F2 | D2 B2 A2 G2 | F3 G =A2 F2 | B,4 (E2 D2) | C4 z4 | z4 z2 G2 | %14
w: dwell- ings, are thy|dwell- ings, O how|a- mi- a- ble|are thy dwell- ings,|thy dwell\- *|ings:|thou|
 =A3 G F2 C2 | D (B, C2 F4) | F4 D4- | D4 F3 (C- | E2) D2 F4 | G2 B3 B A2 | G2 F2 A2 G2 | %21
w: Lord of hosts, thou|Lord of * *|hosts, thou|* Lord of|* hosts! My|soul hath a de-|sire and long- ing|
 G2 F2 E2 C2 | B,CDE F4 | B,4 z2 C2 | G2 B3 B A2 | G6 F2 | F4 D2 D2 | G2 B3 B A2 | G2 F2 AA G2 | %29
w: to en- ter in-|to the courts of the|Lord, my|soul hath a de-|sire and|long- ing, my|soul hath a de-|sire to en- ter in-|
 FF E2 DD D2 | C2 C2 B,4 | B,4 z2 B,2 | E2 ED C2 C2 | F2 FE DC B,2- | B,2 B,2 B,2 B,2 | G,4 z2 E2 | %36
w: to the courts of the Lord,|of the Lord:|* my|heart and my flesh re-|joice in the liv- ing God,|* the liv- ing|God, My|
 A2 AG F2 F2 | B2 BA GF F2- | F2 =E2 F4 | z2 A4 G2 | F4 (G2 C2) | D2 B,3 CDE | F2 F,3 G,=A,B, | %43
w: heart and my flesh re-|joice in the liv\- * *|* ing God.|O Lord|God of *|hosts: bless- ed is the|man, bless- ed is the|
 C2 D2 FC F2 | F3 F F2 EF | GA B2 F2 F2 | F3 G AB c2 | F2 F3 E D2 | C2 F2 F4 | (D2 E2 D2) F2 | %50
w: man that put- teth his|trust in thee, bless- ed|is the man, the man,|bless- ed is the man|that put- teth his|trust in thee.|A\- * * men,|
 z2 (B3 A G2 | F2 C2 DE F2) | C4 z2 (F2- | FE D2 E2 G2) | F4 (G2 FE | DCB,A, G,A, B,2- | %56
w: A\- * *||men, A\-||men, A\- * *||
 B,4) !fermata!B,4 |] %57
w: * men.|
V:4
 B6 B2 | c3 c d3 c | B2 d2 (e4- | e2 d2 c4) | B6 F2 |[M:4/4][K:treble-8] c4 F2 B2- | B2 B2 c3 c | %7
w: O how|a- mi- a- ble|are thy dwell\-||ings, thy|dwell- ings, O|* how a- mi-|
 d3 c B2 B2 | e2 d2 (c2 F2) | B4 c4- | c2 c2 f3 c | e2 d3 c B2 | F4 B2 d2 | e3 d c4- | %14
w: a- ble are thy,|are thy dwell\- *|ings, O|* how a- mi-|a- ble are thy|dwell- ings: thou|Lord of hosts,|
 c2 =A2 B2 c2 | f3 (e d4) | c2 F2 F4 | z4 F4 | G2 B3 B A2 | G2 G2 F4 | B3 F c3 c | B2 B4 =A2 | %22
w: * thou Lord of|hosts, thou *|Lord of hosts!|My|soul hath a de-|sire and long-|ing to en- ter|in- to the|
 B4 z4 | z2 B2 d2 f2- | ff e2 d2 c2 | e2 B3 cdB | c2 cc B2 B2 | B4 z2 F2 | G (A B2) c2 G2 | %29
w: courts,|my soul hath|* a de- sire to|en- ter in- to the|courts of the Lord, the|Lord, in-|to the * courts of|
 (AB c2) F2 F2- | F2 F2 F4 | F2 B2 BA G2 | G2 c2 cB=AG | F6 G2 | F3 F G2 B2 | e2 ed c2 c2 | %36
w: the * * Lord, of|* the Lord:|my heart and my flesh|re- joice in the liv- ing|God, the|liv- ing God, my|heart and my flesh re-|
 f2 fe dc B2- | B2 B4 A2 | G4 =A4 | z2 c4 c2- | c2 B4 =A2 | B4 z2 F2- | FG=AB c2 c2 | %43
w: joice in the liv- ing God,|* the liv-|ing God.|O Lord|* God of|hosts: bless\-|* ed is the man that|
 f2 F2 =A2 B2 | c4 B4 | B3 c de f2 | d4 c4 | =A2 c4 f2- | f2 c2 B4 | (F2 c2 F3 G | %50
w: put- teth his trust|in thee,|bless- ed is the man|that put-|teth his trust|* in thee.|A\- * * *|
 =A2 B2) c2 (c2- | cB =A2) B2 (B2- | BA G2) F4 | z2 (B3 A G2 | =A B2 A Bcde | f2) B2 (B3 A | %56
w: * * men, A\-|* * * men, A\-|* * * men,|A\- * *||* men, A\- *|
 GF G2) !fermata!F4 |] %57
w: * * * men.|
V:5
 z8 | z8 | z8 | z8 | B,,6 B,,2 |[M:4/4] C,3 C, D,D, E,2- | E,2 D,2 C,4 | B,,8 | z8 | z8 | F,6 F,2 | %11
w: ||||O how|a- mi- a- ble are|* thy dwell-|ings,|||O how|
 G,3 F, G,A, B,2- | B,2 =A,2 B,4 | E,4 z2 C,2 | F,3 E, D,2 C,2 | B,,2 =A,,2 B,,4 | F,4 B,,4- | %17
w: a- mi- a- ble are|* thy dwell-|ings: thou|Lord of hosts, thou|Lord of hosts,|of hosts!|
 B,,4 z4 | z8 | z8 | B,,4 C,2 E,2- | E,E, D,2 C,4 | z4 F,4 | G,2 B,3 B, A,2 | G,2 G,2 F,3 F, | %25
w: |||My soul hath|* a de- sire,|my|soul hath a de-|sire and long- ing|
 E,4 B,,4 | F,4 B,,4 | G,4 F,4 | E,2 B,,2 E,4 | F,2 C,2 (D,3 E, | F,4) B,,4- | B,,2 B,,2 E,2 E,D, | %32
w: to en-|ter in-|to the|courts of the|Lord, of the *|* Lord:|* my heart and my|
 C,2 C,2 F,2 F,E, | D,C, B,,4 E,2 | B,,3 B,, E,4- | E,2 E,2 A,2 A,G, | F,2 F,2 B,2 B,A, | %37
w: flesh re- joice in the|liv- ing God, the|liv- ing God,|* my heart and my|flesh re- joice in the|
 G,F, E,4 F,2 | C,3 C, F,4 | z2 F,4 E,2 | D,4 C,4 | B,,4 B,,3 C, | D,E, F,4 F,2 | F,4 F,2 B,,2 | %44
w: liv- ing God, the|liv- ing God.|O Lord|God of|hosts: bless- ed|is the man that|put- teth his|
 F,3 F, B,,2 E,2- | E,F,G,A, B,2 B,,2- | B,,C,D,E, F,4- | F,2 F,2 F,2 B,,B,, | %48
w: trust in thee, bless\-|* ed is the man, bless\-|* ed is the man|* that put- teth his|
 F,2 F,2 B,,2 (B,,2- | B,,2 C,2 D,2 B,,2 | F,2 G,2) C,4 | (F,4 B,,4 | C,3 B,, =A,,4 | B,,4 E,4) | %54
w: trust in thee. A\-||* * men,|A\- *|||
 F,4 (B,,2 B,2- | B,A,G,F, E,2 D,2 | E,4) !fermata!B,,4 |] %57
w: men, A\- *||* men.|

